X:1
T:Title
%%score { ( 1 3 ) | ( 2 4 ) }
L:1/8
M:4/4
K:Bb
V:1 treble nm="Grand Piano"
V:3 treble 
V:2 bass 
V:4 bass 
V:1
 z4 z2[Q:1/4=94] [B,D]>[CE] | [DF]>[DF] [DF]>[DF] [DF]>[DF] [EG]>[EA] | %2
 [B,DB]>[CEB] [DFB]>[CEB] [B,DB]2 [Ec]>[Fd] | [Ge]>[Ge] [Ge]>[Ge] [Fd]>[Fc] [FB]>[Fd] | %4
 z4 c2[K:bass] z2[K:treble] | [DF]>[DF] [DF]>[DF] [DF]>[DF] [EG]>[EA] | %6
 [B,DB]>[CEB] [DFB]>[CEB] [B,DB]2 [Ec]>[Fd] | [Ge]>[Ge] [Ge]>[Ge] [Fd]>[Fc] [FB]>[Gc] | %8
[M:7/8] B>BA>A [DB]3 |[M:1/4] d>B |[M:4/4] F6 z2 | B4 z4 | A6 z2 | F2 F4 z2 | F6 z2 | B4 z4 | %16
 A6 z2 |[M:7/8] B-B-B- B- B3 |] %18
V:2
 z4 z2 [B,,F,]>[B,,F,] | [B,,B,]>[B,,B,] [B,,B,]>[B,,B,] [B,,B,]>[B,,A,] [B,,G,]>[B,,F,] | %2
 B,,>B,, B,,>B,, B,,2 B,>B, | [E,B,]>[E,B,] [E,B,]>[E,B,] [B,,B,]>[B,,A,] [D,B,]>[B,,B,] | %4
 [C,A,]>[C,B,] [C,C]>[C,B,] .[F,A,F]2 [D,F,B,]>[C,F,C] | %5
 [B,,B,]>[B,,B,] [B,,B,]>[B,,B,] [B,,B,]>[B,,A,] [B,,G,]>[B,,F,] | B,,>B,, B,,>B,, B,,2 B,>B, | %7
 [E,B,]>[E,B,] [E,B,]>[E,B,] [B,,B,]>[C,A,] [D,B,]>[E,E] | %8
[M:7/8] [F,DF]>[F,DF][F,CE]>[F,CE] [B,,B,]3 |[M:1/4] z2 | %10
[M:4/4] z2 [B,,B,]>[B,,B,] [B,,B,]>[B,,B,] [B,,B,]>[B,,B,] | %11
 [C,F,]>[C,G,] [C,A,]>[C,G,] [C,F,]2 z2 | z2 F,>[F,G,] [F,A,]>[F,CE] [F,B,E]>[F,A,E] | %13
 B,,>B,, B,,>B,, B,,2 z2 | z2 [B,,B,]>[B,,B,] [B,,B,]>[B,,B,] [B,,B,]>[B,,B,] | %15
 [C,F,]>[C,G,] [C,A,]>[C,G,] [C,F,]2 z2 | z2 F,>[F,G,] [F,A,]>[F,CE] [F,CE]>[F,CE] | %17
[M:7/8] z z/ A,<G,G,/ F,3 |] %18
V:3
 x8 | x8 | x8 | x8 | [Fc]>[Gc] [Ac]>[Gc] z[K:bass] E, D>[K:treble]E | x8 | x8 | x8 |[M:7/8] x7 | %9
[M:1/4] x2 |[M:4/4] z2 D>D D>[DG] [DA]>[DB] | E>E E>E [EA]2 e>c | z2 E>E E>F G>F | %13
 [B,D]>[CE] D>[CE] [B,D]2 d>B | z2 D>D D>[DG] [DA]>[DB] | E>E E>E [EA]2 e>c | z2 E>E E>A G>A | %17
[M:7/8] [B,D]>FE>E D3 |] %18
V:4
 x8 | x8 | x8 | x8 | x8 | x8 | x8 | x8 |[M:7/8] x7 |[M:1/4] x2 |[M:4/4] x8 | x8 | x8 | x8 | x8 | %15
 x8 | x8 |[M:7/8] B,,-B,,-B,,- B,,- B,,3 |] %18

